X: 30
T: Branles d'Escosse
M: C |
L: 1/8
B: The Orography of Thoinot Arbeau (Lengres, France, 1589)
F: http: //graner.net/nicolas/arbeau/orcheso.abc
N: for more information: http://graner.net/nicolas/arbeau/
Z: Nicolas Graner <arbeau@graner.name> Sep. 2001
K: F
P: First move
G2 A2 B2 G2 A2 B2 c4 | c2 B2 A2 G2 B2 c2 d4 | d2 f2 e2 d2 c2 B2 A2 G2 |
G2 A2 B2 G2 A2 B2 c4 | c2 B2 A2 G2 B2 c2 d4 | c2 B2 A2 G2 A2 F2 G4 ||
P: Second move
d4 d2 e2 f2 g2 f2 e2 d4 d4 c2 B2 A4 | d4 c2 B2 A4 G4 |
d4 d2 e2 f2 g2 f2 e2 d4 d4 c2 B2 A2 G2 A2 F2 G4 ||

